input/blobhaj/Blobhaj_Ghostie_Alive.svg

<?xml version="1.0" encoding="UTF-8"?>
<svg id="Prior_to_November" data-name="Prior to November" viewBox="0 0 800 800" xmlns="http://www.w3.org/2000/svg">
 <defs>
  <style>.cls-1{fill:none;}.cls-2{fill:#558a9c;}.cls-3{clip-path:url(#clip-path);}.cls-4{fill:#e5e6e6;}.cls-5{clip-path:url(#clip-path-2);}.cls-6{fill:#4f668e;}.cls-7{fill:#55889a;}.cls-8{clip-path:url(#clip-path-3);}.cls-9{fill:#2f152f;}</style>
  <clipPath id="clip-path">
   <path class="cls-1" d="m681 542.07c26.41-387.48-524.28-584.92-578.36-297.64-6.49 69.79-33.48 207.91-38.38 255.48-1.16 11.32 8.7 17.66 15.27 27 205 290 477.62 269.94 601.43 15.2"/>
  </clipPath>
  <clipPath id="clip-path-2">
   <path class="cls-1" d="M146,125.61C139.26,270,199.63,505.86,268.71,640.9c73.49,143.69,463.5,113.68,398.64-251.8,35.31,16.91,237.35,301.33-209.88,394-23,4.76-43.51,17.4-66.65,21.25-70.42,11.72-142.34,9.78-213.64,6.25C124,808,70.06,804.33,19.63,787.14c-43.75-14.91,1.15-28.22-29-63.29S9.56,616.36,8.55,570.15c-.85-38.92-6.59-83,11.59-117.4,33.22-62.94-47.64-93,17.72-121.17,26.4-11.37,9.84-4.65,36,7.25"/>
  </clipPath>
  <clipPath id="clip-path-3">
   <path class="cls-1" d="M625.61,298.13C655,275.38,659,265,691.76,246.79c6.66-3.43,13.62-7.26,20.81-10.63,23.66-11.08,52-.74,62.46,23.19C798.4,312.78,737.49,463,710.68,511.27"/>
  </clipPath>
 </defs>
 <g id="hold_asparagus" data-name="hold asparagus">
  <g id="still_alive" data-name="still alive">
   <path class="cls-2" d="m131.53 229.24a4.72 4.72 0 0 0 0.12-0.84c54.54-286.67 604.68-89.23 578.24 298.06l0.69-17.72c1.33 55.09-24.74 108.53-63 148.18s-87.91 66.73-139.28 86.68a655.72 655.72 0 0 1-69.3 22.57c-100.66 26.65-211 28.11-306-14.45-31.94-14.31-104.2-36.56-112.81-101a8.58 8.58 0 0 1 12.53-8.67c16.7 8.77 40 17 49.19 10.61 19.37-13.44 23.91-74.66 23.84-89.42-0.08-21.48-2.32-261.66 25.78-334z"/>
   <g class="cls-3">
    <path class="cls-4" d="m207.8 613.61c-4.47 145.21 326.64 201.7 454.73-37.17 18.47-34.37 18.47-34.37 40.8-125.75 13.11-53.53-16.51-122.46-69.07-204.43-55.52-86.6-244.96-142.36-330.26-110.18-17.48 6.6-53.65 33-59.37 85.21-5.08 46.3 13.86 103.38 20 155.89 5.51 47.19-1.78 91.26-4.51 110.65-6.12 43.44-51.22 90.04-52.32 125.78z"/>
   </g>
   <g class="cls-5">
    <path class="cls-6" d="m131.53 229.24a4.72 4.72 0 0 0 0.12-0.84c54.54-286.67 604.68-89.23 578.24 298.06l0.69-17.72c1.33 55.09-24.74 108.53-63 148.18s-87.91 66.73-139.28 86.68a655.72 655.72 0 0 1-69.3 22.57c-100.66 26.65-211 28.11-306-14.45-31.94-14.31-104.2-36.56-112.81-101a8.58 8.58 0 0 1 12.53-8.67c16.7 8.77 40 17 49.19 10.61 19.37-13.44 23.91-74.66 23.84-89.42-0.08-21.48-2.32-261.66 25.78-334z"/>
   </g>
   <path class="cls-7" d="M625.61,298.13C655,275.38,659,265,691.76,246.79c6.66-3.43,13.62-7.26,20.81-10.63,23.66-11.08,52-.74,62.46,23.19C798.4,312.78,737.49,463,710.68,511.27"/>
   <path class="cls-2" d="M179,605.52C-11.11,563.59,15.12,429,30.08,397c3.51-7.53,34.5-25.68,52.44-17.17,28.93,13.73,72.51,56.48,76.42,61.1,7.25,8.59,40.44,36.37,59.37,51.41l-3.5,39.78"/>
   <path class="cls-6" d="M218.22,518.33C130,537.79,64,495.85,29.52,415.11,8.24,468.3,24.94,534.31,69,571c17.76,14.8,39,24.86,60.47,33.37,14.55,5.76,25.29,20.28,40.42,16.31,8.89-2.34,42-8.35,48.47-14.84,17-17,0-55.41-.09-87.51"/>
   <g class="cls-8">
    <path class="cls-6" d="M724.51,482.1a714.29,714.29,0,0,0,53.72-151.49c-9.65.45-19.18,2.25-28.68,4.05L630.16,357.27c-6.43,16.66.59,35.29,8.61,51.24,8.63,17.18,18.66,33.91,32.16,47.61s25.2,52.29,44.22,55.15"/>
   </g>
   <circle class="cls-9" cx="194.86" cy="373.5" r="49.58"/>
   <path class="cls-9" d="m516.2 316.84c-7.66-9.47-16.78-18.42-27.11-24.78l-0.39 27.66-57.47-26.89a3.17 3.17 0 0 0-2.5-0.41 3.22 3.22 0 0 0-1.47 2.31l-12.42 45.36q-8.4-5.1-16.78-10.22c-9.86 24.54-9.95 51.89-9.87 78.4-4.22 27.19 27.55 53.08 54.32 59.47 39.53 9.44 85.77-12.1 99.11-50.5 11.84-34.07-2.75-72.35-25.42-100.4z"/>
  </g>
 </g>
</svg>

<svg id="Prior_to_November" data-name="Prior to November" xmlns="http://www.w3.org/2000/svg" xmlns:xlink="http://www.w3.org/1999/xlink" viewBox="0 0 800 800"><defs><style>.cls-1{fill:none;}.cls-2{fill:#558a9c;}.cls-3{clip-path:url(#clip-path);}.cls-4{fill:#e5e6e6;}.cls-5{clip-path:url(#clip-path-2);}.cls-6{fill:#4f668e;}.cls-7{fill:#55889a;}.cls-8{clip-path:url(#clip-path-3);}.cls-9{fill:#2f152f;}</style><clipPath id="clip-path"><path class="cls-1" d="M681,542.07C707.41,154.59,156.72-42.85,102.64,244.43c-6.49,69.79-33.48,207.91-38.38,255.48-1.16,11.32,8.7,17.66,15.27,27,205,290,477.62,269.94,601.43,15.2"/></clipPath><clipPath id="clip-path-2"><path class="cls-1" d="M146,125.61C139.26,270,199.63,505.86,268.71,640.9c73.49,143.69,463.5,113.68,398.64-251.8,35.31,16.91,237.35,301.33-209.88,394-23,4.76-43.51,17.4-66.65,21.25-70.42,11.72-142.34,9.78-213.64,6.25C124,808,70.06,804.33,19.63,787.14c-43.75-14.91,1.15-28.22-29-63.29S9.56,616.36,8.55,570.15c-.85-38.92-6.59-83,11.59-117.4,33.22-62.94-47.64-93,17.72-121.17,26.4-11.37,9.84-4.65,36,7.25"/></clipPath><clipPath id="clip-path-3"><path class="cls-1" d="M625.61,298.13C655,275.38,659,265,691.76,246.79c6.66-3.43,13.62-7.26,20.81-10.63,23.66-11.08,52-.74,62.46,23.19C798.4,312.78,737.49,463,710.68,511.27"/></clipPath></defs><g id="hold_asparagus" data-name="hold asparagus"><g id="still_alive" data-name="still alive"><path class="cls-2" d="M131.53,229.24a4.72,4.72,0,0,0,.12-.84c54.54-286.67,604.68-89.23,578.24,298.06l.69-17.72c1.33,55.09-24.74,108.53-63,148.18S559.67,723.65,508.3,743.6A655.72,655.72,0,0,1,439,766.17C338.34,792.82,228,794.28,133,751.72c-31.94-14.31-104.2-36.56-112.81-101a8.58,8.58,0,0,1,12.53-8.67c16.7,8.77,40,17,49.19,10.61,19.37-13.44,23.91-74.66,23.84-89.42C105.67,541.76,103.43,301.58,131.53,229.24Z"/><g class="cls-3"><path class="cls-4" d="M207.8,613.61c-4.47,145.21,326.64,201.7,454.73-37.17C681,542.07,681,542.07,703.33,450.69c13.11-53.53-16.51-122.46-69.07-204.43C578.74,159.66,389.3,103.9,304,136.08c-17.48,6.6-53.65,33-59.37,85.21-5.08,46.3,13.86,103.38,20,155.89,5.51,47.19-1.78,91.26-4.51,110.65C254,531.27,208.9,577.87,207.8,613.61Z"/></g><g class="cls-5"><path class="cls-6" d="M131.53,229.24a4.72,4.72,0,0,0,.12-.84c54.54-286.67,604.68-89.23,578.24,298.06l.69-17.72c1.33,55.09-24.74,108.53-63,148.18S559.67,723.65,508.3,743.6A655.72,655.72,0,0,1,439,766.17C338.34,792.82,228,794.28,133,751.72c-31.94-14.31-104.2-36.56-112.81-101a8.58,8.58,0,0,1,12.53-8.67c16.7,8.77,40,17,49.19,10.61,19.37-13.44,23.91-74.66,23.84-89.42C105.67,541.76,103.43,301.58,131.53,229.24Z"/></g><path class="cls-7" d="M625.61,298.13C655,275.38,659,265,691.76,246.79c6.66-3.43,13.62-7.26,20.81-10.63,23.66-11.08,52-.74,62.46,23.19C798.4,312.78,737.49,463,710.68,511.27"/><path class="cls-2" d="M179,605.52C-11.11,563.59,15.12,429,30.08,397c3.51-7.53,34.5-25.68,52.44-17.17,28.93,13.73,72.51,56.48,76.42,61.1,7.25,8.59,40.44,36.37,59.37,51.41l-3.5,39.78"/><path class="cls-6" d="M218.22,518.33C130,537.79,64,495.85,29.52,415.11,8.24,468.3,24.94,534.31,69,571c17.76,14.8,39,24.86,60.47,33.37,14.55,5.76,25.29,20.28,40.42,16.31,8.89-2.34,42-8.35,48.47-14.84,17-17,0-55.41-.09-87.51"/><g class="cls-8"><path class="cls-6" d="M724.51,482.1a714.29,714.29,0,0,0,53.72-151.49c-9.65.45-19.18,2.25-28.68,4.05L630.16,357.27c-6.43,16.66.59,35.29,8.61,51.24,8.63,17.18,18.66,33.91,32.16,47.61s25.2,52.29,44.22,55.15"/></g><circle class="cls-9" cx="194.86" cy="373.5" r="49.58"/><path class="cls-9" d="M516.2,316.84c-7.66-9.47-16.78-18.42-27.11-24.78l-.39,27.66-57.47-26.89a3.17,3.17,0,0,0-2.5-.41,3.22,3.22,0,0,0-1.47,2.31l-12.42,45.36q-8.4-5.1-16.78-10.22c-9.86,24.54-9.95,51.89-9.87,78.4-4.22,27.19,27.55,53.08,54.32,59.47,39.53,9.44,85.77-12.1,99.11-50.5C553.46,383.17,538.87,344.89,516.2,316.84Z"/></g></g></svg>
